icons/rows-16.svg

<svg width="16" height="16" viewBox="0 0 16 16" fill="none" xmlns="http://www.w3.org/2000/svg">
<g clip-path="url(#clip0)">
<path fill-rule="evenodd" clip-rule="evenodd" d="M16 1.75C16 1.28587 15.8156 0.840752 15.4874 0.512563C15.1592 0.184374 14.7141 -5.62072e-08 14.25 -7.64949e-08L1.75 -6.22887e-07C0.784 -6.65112e-07 -3.42697e-08 0.783999 -7.64949e-08 1.75L-2.29485e-07 5.25C-2.49773e-07 5.71413 0.184374 6.15925 0.512562 6.48744C0.840751 6.81562 1.28587 7 1.75 7L14.25 7C14.7141 7 15.1592 6.81563 15.4874 6.48744C15.8156 6.15925 16 5.71413 16 5.25L16 1.75ZM14.25 1.5C14.3163 1.5 14.3799 1.52634 14.4268 1.57322C14.4737 1.62011 14.5 1.6837 14.5 1.75L14.5 5.25C14.5 5.3163 14.4737 5.37989 14.4268 5.42678C14.3799 5.47366 14.3163 5.5 14.25 5.5L1.75 5.5C1.6837 5.5 1.62011 5.47366 1.57322 5.42678C1.52634 5.37989 1.5 5.3163 1.5 5.25L1.5 1.75C1.5 1.6837 1.52634 1.62011 1.57322 1.57322C1.62011 1.52634 1.6837 1.5 1.75 1.5L14.25 1.5ZM16 10.75C16 10.2859 15.8156 9.84075 15.4874 9.51256C15.1592 9.18437 14.7141 9 14.25 9L1.75 9C0.784 9 -4.27672e-07 9.784 -4.69897e-07 10.75L-6.22887e-07 14.25C-6.43175e-07 14.7141 0.184373 15.1592 0.512562 15.4874C0.840751 15.8156 1.28587 16 1.75 16L14.25 16C14.7141 16 15.1592 15.8156 15.4874 15.4874C15.8156 15.1592 16 14.7141 16 14.25L16 10.75ZM14.25 10.5C14.3163 10.5 14.3799 10.5263 14.4268 10.5732C14.4737 10.6201 14.5 10.6837 14.5 10.75L14.5 14.25C14.5 14.3163 14.4737 14.3799 14.4268 14.4268C14.3799 14.4737 14.3163 14.5 14.25 14.5L1.75 14.5C1.6837 14.5 1.62011 14.4737 1.57322 14.4268C1.52634 14.3799 1.5 14.3163 1.5 14.25L1.5 10.75C1.5 10.6837 1.52634 10.6201 1.57322 10.5732C1.62011 10.5263 1.6837 10.5 1.75 10.5L14.25 10.5Z" fill="black"/>
</g>
<defs>
<clipPath id="clip0">
<rect width="16" height="16" fill="white"/>
</clipPath>
</defs>
</svg>

<svg xmlns="http://www.w3.org/2000/svg" width="16" height="16" viewBox="0 0 16 16"><path fill-rule="evenodd" d="M16 1.75A1.75 1.75 0 0014.25 0H1.75A1.75 1.75 0 000 1.75v3.5A1.75 1.75 0 001.75 7h12.5A1.75 1.75 0 0016 5.25v-3.5zm-1.75-.25a.25.25 0 01.25.25v3.5a.25.25 0 01-.25.25H1.75a.25.25 0 01-.25-.25v-3.5a.25.25 0 01.25-.25h12.5zM16 10.75A1.75 1.75 0 0014.25 9H1.75A1.75 1.75 0 000 10.75v3.5A1.75 1.75 0 001.75 16h12.5A1.75 1.75 0 0016 14.25v-3.5zm-1.75-.25a.25.25 0 01.25.25v3.5a.25.25 0 01-.25.25H1.75a.25.25 0 01-.25-.25v-3.5a.25.25 0 01.25-.25h12.5z"/></svg>
